icons/arrow-square-right.svg

<svg width="24" height="24" viewBox="0 0 24 24" fill="none" xmlns="http://www.w3.org/2000/svg">
<path fill-rule="evenodd" clip-rule="evenodd" d="M9 3.75C6.11421 3.75 3.75 6.11421 3.75 9V15C3.75 17.8858 6.11421 20.25 9 20.25H15C17.7858 20.25 20.25 17.7858 20.25 15V9C20.25 6.11421 17.8858 3.75 15 3.75H9ZM2.25 9C2.25 5.28579 5.28579 2.25 9 2.25H15C18.7142 2.25 21.75 5.28579 21.75 9V15C21.75 18.6142 18.6142 21.75 15 21.75H9C5.28579 21.75 2.25 18.7142 2.25 15V9ZM7.84998 12C7.84998 11.5858 8.18576 11.25 8.59998 11.25H13.7893L12.0696 9.53033C11.7768 9.23744 11.7768 8.76256 12.0696 8.46967C12.3625 8.17678 12.8374 8.17678 13.1303 8.46967L15.6303 10.9697C16.1232 11.4626 16.1232 12.2374 15.6303 12.7303L13.1303 15.2303C12.8374 15.5232 12.3625 15.5232 12.0696 15.2303C11.7768 14.9374 11.7768 14.4626 12.0696 14.1697L13.4893 12.75H8.59998C8.18576 12.75 7.84998 12.4142 7.84998 12Z" fill="black"/>
</svg>

<svg xmlns="http://www.w3.org/2000/svg" fill="none" viewBox="0 0 24 24">
  <path fill="#000" fill-rule="evenodd" d="M9 3.75C6.114 3.75 3.75 6.114 3.75 9v6c0 2.886 2.364 5.25 5.25 5.25h6c2.786 0 5.25-2.464 5.25-5.25V9c0-2.886-2.364-5.25-5.25-5.25H9ZM2.25 9c0-3.714 3.036-6.75 6.75-6.75h6c3.714 0 6.75 3.036 6.75 6.75v6c0 3.614-3.136 6.75-6.75 6.75H9c-3.714 0-6.75-3.036-6.75-6.75V9Zm5.6 3a.75.75 0 0 1 .75-.75h5.19l-1.72-1.72a.75.75 0 0 1 1.06-1.06l2.5 2.5a1.233 1.233 0 0 1 0 1.76l-2.5 2.5a.75.75 0 0 1-1.06-1.06l1.42-1.42H8.6a.75.75 0 0 1-.75-.75Z" clip-rule="evenodd"/>
</svg>
